X:60
T: WOLAUF MIT MIR AUF DIESEN PLAN
N: E1059
O: Europa, Mitteleuropa, Deutschland, Schwaben, Ulm
R: Tanz - Lied, Toten - Tanz, geistlich
M: 6/4
L: 1/4
K: F
F | A2AA2c | G2AF2
F | E2FG2A | D2DC2
C | F2GA2G | A2Bc2
c | cdcB2A | AG2F2

